X:1
T:Title
%%score { ( 1 3 ) | ( 2 4 ) }
L:1/8
Q:1/4=81
M:6/8
K:Db
V:1 treble nm="Grand Piano"
V:3 treble 
V:2 bass 
V:4 bass 
V:1
 [FA][FA][FA] [Fd][DF][EG] | [FA][FA][GB] [FA]3 | [FA][FB][FA] [CG][EA][CG] | [DF]6 | %4
w: Charles~D.~Tillman * * * * *||||
 [FA][FA][FA] [Fd][DF][EG] | [FA][FA][GB] [FA]3 | EE=G [GB][Gc][Gd] |[M:5/8] [Ge]-[Ge]- [Ge]3 | %8
w: ||||
[M:1/8] [GA] |[M:3/4] d4 z2 | F3 F3 | DF [FA] [FA]2 [Fd] | [Gd]3 .[Gc]3 | A3 B2 c | [Fd]3 F2 F | %15
w: |||||||
 E2 E=G B[Ge] | [Ge]4- [Ge][GA] | d-[Fd-] [Fd-][Fd] [Fc]B | F3 .F3 | DF AA B_c | _c3 .B3 | d3 .d3 | %22
w: |||||||
 d3 d2 d | e3 d2 c | d6 |] %25
w: |||
V:2
 [D,D][D,D][D,D] [D,A,][D,A,][D,D] | [D,D][D,D][D,D] [D,D]3 | [D,D][D,D][D,D] [E,A,][E,C][A,,A,] | %3
 [D,A,]6 | [D,D][D,D][D,D] [D,A,][D,A,][D,D] | [D,D][D,D][D,D] [D,D]3 | %6
 [E,=G,D][E,G,D][E,B,D] [E,D][E,C][E,B,] |[M:5/8] [A,,A,C]-[A,,A,C]- [A,,A,C]3 |[M:1/8] [A,C] | %9
[M:3/4] [D,A,][D,A,] [D,A,][D,A,] .[D,A,]2 | [D,A,D][D,A,] [D,A,][D,A,D] .[D,A,]2 | %11
 [D,F,][D,A,D] [D,D] [D,D]2 [D,D] | [E,A,]3 .[A,,A,]3 | A,3[K:treble] [A,D=G]2 [A,E_G] | %14
 [D,D]3 [D,A,D]2 [D,A,D] | [E,A,C]2 [E,A,C][E,B,E] [E,DE][E,D] | [A,C]4- [A,C][E,C] | %17
 [D,A,][D,A,] [D,A,][D,A,] .[D,A,]2 | [D,A,D][D,A,] [D,A,][D,A,D] .[D,A,]2 | %19
 [F,A,][F,A,D] [F,A,D][F,A,D] [F,A,D][F,A,D] | [G,A,D]3 .[G,D]3 | %21
 [G,B,_F][G,B,] [G,B,][G,B,F] [G,B,][G,B,F] | [A,F]3 [A,F]2 [A,F] | [A,CG]3 [A,F]2[K:bass] [A,E] | %24
 A,A, B, A,3 |] %25
V:3
 x6 | x6 | x6 | x6 | x6 | x6 | x6 |[M:5/8] x5 |[M:1/8] x |[M:3/4] FF FF [Fc]B | z D .D2 .D2 | x6 | %12
 x6 | x6 | x6 | x6 | x6 | .F2 z2 z2 | z D .D2 .D2 | x6 | x6 | z _F .F2 Fd | x6 | x6 | FF G F3 |] %25
V:4
 x6 | x6 | x6 | x6 | x6 | x6 | x6 |[M:5/8] x5 |[M:1/8] x |[M:3/4] x6 | x6 | x6 | x6 | %13
 x3[K:treble] x3 | x6 | x6 | x6 | x6 | x6 | x6 | x6 | x6 | x6 | x5[K:bass] x | D,6 |] %25

